img/faqplus_30.svg

<svg width="30" height="30" viewBox="0 0 30 30" fill="none" xmlns="http://www.w3.org/2000/svg">
<circle cx="15" cy="15" r="15" fill="#ECECEC"/>
<path fill-rule="evenodd" clip-rule="evenodd" d="M15.0339 14.4343L15.0339 5.4L15.5653 5.4L15.5653 14.4343L20.3297 14.4343L24.5996 14.4343L24.5996 14.9657L15.5653 14.9657L15.5653 24L15.0339 24L15.0339 14.9657L5.99961 14.9657L5.99961 14.4343L15.0339 14.4343Z" fill="#666666"/>
</svg>

<svg width="30" height="30" fill="none" xmlns="http://www.w3.org/2000/svg"><circle cx="15" cy="15" r="15" fill="#ECECEC"/><path fill-rule="evenodd" clip-rule="evenodd" d="M15.034 14.434V5.4h.531v9.034H24.6v.532h-9.035V24h-.531v-9.034H6v-.532h9.034Z" fill="#666"/></svg>
